packages/icons/raw/imported/SportSetTennis.svg

<svg width="32" height="32" viewBox="0 0 32 32" fill="none" xmlns="http://www.w3.org/2000/svg">
<path d="M13.23 7.6698C13.891 8.5747 14.1063 9.77792 13.7846 10.8453C13.443 12.0272 12.5205 12.981 12.0714 14.1285C11.6496 15.1829 11.6365 16.382 12.0427 17.4471C12.4345 18.5054 13.0659 19.325 14.2435 19.895C15.4068 20.4581 16.4414 20.4448 17.5288 20.1025C18.6018 19.7533 19.5484 19.0061 20.1138 18.0212C20.7352 16.9571 20.911 15.6418 21.626 14.6407C22.2779 13.7332 23.3552 13.1556 24.4606 13.1057M24.1971 19.9679C22.0058 24.4951 16.5594 26.3888 12.0321 24.1975C7.50488 22.0062 5.61122 16.5598 7.80251 12.0325C9.9938 7.50531 15.4402 5.61165 19.9675 7.80294C24.4947 9.99423 26.3884 15.4407 24.1971 19.9679Z" stroke="black" stroke-miterlimit="10" stroke-linecap="round"/>
</svg>

<svg width="32" height="32" fill="none" xmlns="http://www.w3.org/2000/svg"><path d="M13.23 7.67c.661.905.876 2.108.555 3.175-.342 1.182-1.264 2.136-1.714 3.284a4.589 4.589 0 0 0-.028 3.318c.392 1.058 1.023 1.878 2.2 2.448 1.164.563 2.198.55 3.286.207a4.666 4.666 0 0 0 2.585-2.08c.621-1.065.797-2.38 1.512-3.381a3.752 3.752 0 0 1 2.835-1.535m-.264 6.862a9.107 9.107 0 1 1-16.395-7.936 9.107 9.107 0 0 1 16.395 7.936Z" stroke="#000" stroke-miterlimit="10" stroke-linecap="round"/></svg>
